shared/img/tn-quantcast.svg

<?xml version="1.0" encoding="UTF-8"?>
<svg width="10px" height="16px" viewBox="0 0 10 16" version="1.1" xmlns="http://www.w3.org/2000/svg" xmlns:xlink="http://www.w3.org/1999/xlink">
    <!-- Generator: sketchtool 47.1 (45422) - http://www.bohemiancoding.com/sketch -->
    <title>7D861A62-11FE-4F25-8746-EA1836FA3E3A</title>
    <desc>Created with sketchtool.</desc>
    <defs></defs>
    <g id="V4--RC-Updates" stroke="none" stroke-width="1" fill="none" fill-rule="evenodd">
        <g id="ASSETS--Pill-Icons" transform="translate(-183.000000, -60.000000)" fill-rule="nonzero" fill="#FFFFFF">
            <g id="quantcast" transform="translate(183.000000, 60.000000)">
                <path d="M5.26,0.5 C2.67571675,0.396922971 0.432055837,2.26484086 0.065,4.825 C-0.322209194,7.31758257 1.18556288,9.71466293 3.6,10.445 C5.05862773,10.8632126 6.62875662,10.5805894 7.85,9.68 L7.85,15.355 L9.85,15.355 C9.85,11.855 9.95,8.435 9.815,5.03 C9.79581005,2.52639309 7.76367461,0.50541097 5.26,0.5 Z M6.5,8.43 C5.39882133,8.95657369 4.08947443,8.77346202 3.175,7.965 C1.99828508,6.99906343 1.68238182,5.32898823 2.425,4 C3.0749376,2.77374402 4.4811383,2.15336136 5.825,2.5 C6.89355134,2.79412409 7.66698677,3.72105057 7.765,4.825 C7.825,5.25 7.825,5.68 7.85,6.11 C8.13,7.315 7.5,8 6.5,8.43 Z" id="Shape"></path>
            </g>
        </g>
    </g>
</svg>

<svg width="10" height="16" xmlns="http://www.w3.org/2000/svg"><path d="M5.26.5A5.045 5.045 0 0 0 .065 4.825a5.06 5.06 0 0 0 3.535 5.62 4.89 4.89 0 0 0 4.25-.765v5.675h2c0-3.5.1-6.92-.035-10.325A4.565 4.565 0 0 0 5.26.5zM6.5 8.43a3.04 3.04 0 0 1-3.325-.465A3.145 3.145 0 0 1 2.425 4a3 3 0 0 1 3.4-1.5 2.655 2.655 0 0 1 1.94 2.325c.06.425.06.855.085 1.285C8.13 7.315 7.5 8 6.5 8.43z" fill-rule="nonzero" fill="#FFF"/></svg>
